storage/app/icons/phosphoricons/bold/stamp-bold.svg

<svg xmlns="http://www.w3.org/2000/svg" fill="currentColor" viewBox="0 0 256 256"><path d="M228 224a12 12 0 0 1-12 12H40a12 12 0 0 1 0-24h176a12 12 0 0 1 12 12m0-80v32a20 20 0 0 1-20 20H48a20 20 0 0 1-20-20v-32a20 20 0 0 1 20-20h48L83.55 54.33A36 36 0 0 1 119 12h18a36 36 0 0 1 35.44 42.33L160 124h48a20 20 0 0 1 20 20M107.17 50.11l13.2 73.89h15.26l13.2-73.89A12 12 0 0 0 137 36h-18a12 12 0 0 0-11.82 14.11ZM204 148H52v24h152Z"/></svg>

<svg xmlns="http://www.w3.org/2000/svg" viewBox="0 0 256 256" fill="currentColor"><path d="M228,224a12,12,0,0,1-12,12H40a12,12,0,0,1,0-24H216A12,12,0,0,1,228,224Zm0-80v32a20,20,0,0,1-20,20H48a20,20,0,0,1-20-20V144a20,20,0,0,1,20-20H96L83.55,54.33A36,36,0,0,1,119,12h18a36,36,0,0,1,35.44,42.33L160,124h48A20,20,0,0,1,228,144ZM107.17,50.11,120.37,124h15.26l13.2-73.89A12,12,0,0,0,137,36H119a12,12,0,0,0-11.82,14.11ZM204,148H52v24H204Z"/></svg>
